X:1
T:Title
%%score { 1 | 2 }
L:1/8
M:2/4
K:Ab
V:1 treble nm="Grand Piano"
V:2 bass 
V:1
 z2 z z/[Q:1/4=88] [CE]/ | [CE][CA] [CA][CA]/[DB]/ | [Ec]>[Ec] [DB]/[CA]/[CA] | Ac e>f | %4
 e>c [Ac][GB] | [GB][GB] [Ac][GB] | [Ge][EGe] [EAc]2 | [CEA][CEA]/[DEB]/ [CEA][A,DF] | %8
[M:3/8] [A,CE][DB][CA] |[M:1/8] [CE] |[M:2/4] [CA]>[CE] [CA]>[Ec] | [FA]F E2 | B>B BA/B/ | %13
[M:3/8] ccB |[M:1/8] [CE] |[M:2/4] [CA]>[CE] [CA]>[Ec] | [FA]F E2 | e>e ec/A/ | %18
[M:7/16] [Ac][EB][CEA]3/2 |] %19
V:2
 z2 z z/ [A,,A,]/ | [A,,A,][A,,A,] [A,,A,][A,,A,] | [A,,A,]>[A,,A,] [A,,A,][A,,A,] | %3
 [A,CE][A,EA] [A,CA]>[A,DA] | [A,CA]>[A,EA][K:bass] [E,E][E,E] | [E,E][E,E] [E,E][E,E] | %6
 [E,B,]E, A,2 | A,,A,,/A,,/ A,,D, |[M:3/8] E,[E,G,][A,,A,] |[M:1/8] [A,,A,] | %10
[M:2/4] [A,,A,]>[A,,A,] [A,,A,]>[A,,A,] | [D,A,][F,A,D] [A,C]2 | %12
 [E,G,E]>[E,G,E] [E,G,E][E,F,E]/[E,G,E]/ |[M:3/8] [E,A,E][E,A,E][E,G,E] |[M:1/8] [A,,A,] | %15
[M:2/4] [A,,A,]>[A,,A,] [A,,A,]>[A,,A,] | [D,A,][F,A,D][K:treble] [A,C]2 | %17
 [A,CA]>[A,CA] [A,CA][A,EA]/[K:bass][A,C]/ |[M:7/16] [E,E][E,D][A,,A,]3/2 |] %19

